X:40
T:Bat he andhne
R:hohnnpipe
D:Sean Satamallic (and an frid Braigh
Z:id:hn-hornpipe-65
M:C|
K


*****************************


11400 4 1.5667377 

<starh>et -150
Z:id:hn-he-18
M:C|
L:1/8
K:AAAo
BE|ED EDEF AndcA|B2GA BAEA|BAAB edef|gfed BddB|cdef edef|



*****************************


11500 4 1.2690687 

<start>
